X: 39385
T: Tanteeka
R: reel
M: 4/4
K: Dminor
a2 a2 g>fe>d|c>ea>e f2 e>d|g3 g f>ed>f|e>dc>d e>fg>^g|
a2 (3aba g2 (3fed|c>ea>e f2 e>d|g2 (3ggg f2 (3def|e>dc>a d2:|
f2 e>d (3fgf (3fed|g2 g>f e>d ^c2|^c>de>d c2 (3gfe|d2 A>G F4|
B>df>B f2 F>B|A>d (3fed f2 A>f|G>gf>e d>e ^c2|B>AG>f d2:|
A2 A2 G>FE>D|C>EA>E F2 (3FED|G>A (3GFE F>E (3DEF|E2 E>^D (3EFE (3DEF|
A2 (3AAA G>FE>D|C2 A>E F2 D>F|G>AG>E F>^EF>D|E2 (3EDC D2:|

